dist/img/logo.svg

<svg width="49" height="50" viewBox="0 0 49 50" fill="none" xmlns="http://www.w3.org/2000/svg">
<path d="M17.58 22.5831C18.5214 23.9959 19.3017 25.1664 20.0821 26.337C20.0552 26.3754 20.0267 26.4117 19.9998 26.45C19.0299 25.5035 18.0599 24.5569 16.939 23.4631C16.5899 27.7538 16.2576 31.8164 15.9271 35.8771C15.8784 35.8811 15.8297 35.8851 15.7827 35.8892C15.4656 31.9678 15.1484 28.0444 14.8145 23.9091C14.1147 24.5065 13.5374 25.001 12.9618 25.4934C12.9165 25.451 12.8712 25.4086 12.8259 25.3683C13.3327 24.4984 13.8378 23.6306 14.4419 22.5953C9.95129 22.1714 5.59659 21.7597 1.2402 21.348C1.2402 21.2854 1.23853 21.2209 1.23853 21.1583C5.40193 20.7607 9.56365 20.3611 13.8882 19.9474C13.0793 18.7102 12.393 17.6587 11.7066 16.6093C11.7335 16.5649 11.7603 16.5225 11.7872 16.4781C12.7537 17.2672 13.7203 18.0563 14.8078 18.9443C15.14 15.0694 15.4572 11.3619 15.7744 7.65449C15.823 7.65247 15.87 7.65046 15.9187 7.64844C16.2694 11.4528 16.6184 15.255 16.9876 19.2652C18.3419 17.9514 19.5619 16.7667 20.7818 15.584C20.8053 15.6143 20.8272 15.6446 20.8506 15.6748C19.9596 17.0654 19.0702 18.4539 18.0599 20.0321C27.6722 20.2622 37.0763 20.4862 46.4805 20.7123C46.4805 20.7405 46.4805 20.7688 46.4805 20.797C36.9203 21.3884 27.3634 21.9797 17.58 22.5831Z" fill="#403637"/>
<path d="M47.7505 21.7577C41.7378 28.8941 35.8292 35.9114 29.9205 42.9267C29.9709 42.9892 30.0212 43.0538 30.0716 43.1164C34.7971 37.6935 39.5227 32.2705 44.3439 26.7386C44.9363 28.0162 45.4985 29.2231 46.1194 30.5591C39.0277 36.7752 31.9544 42.9771 24.8795 49.1791C24.8459 49.1367 24.8107 49.0963 24.7771 49.0539C26.0676 47.2739 27.353 45.4878 28.6485 43.7117C33.7332 36.7409 38.8296 29.7801 43.8975 22.7931C44.3976 22.1049 44.9279 21.7214 45.6831 21.7517C46.3124 21.7779 46.9433 21.7577 47.7505 21.7577Z" fill="#403637"/>
<path d="M23.1998 49.0761C16.1601 42.967 9.1221 36.8599 2.03039 30.7064C2.61437 29.4975 3.16815 28.3511 3.76388 27.118C7.30974 31.1201 10.7851 35.0435 13.8493 38.5027C9.64903 33.3119 5.05603 27.6387 0.404297 21.8909C1.28698 21.9413 2.14282 21.9595 2.99195 22.0564C3.20675 22.0806 3.44336 22.3107 3.59943 22.5205C10.1223 31.2412 16.6367 39.972 23.1495 48.7007C23.2048 48.7754 23.2418 48.8662 23.2871 48.951C23.2602 48.9913 23.23 49.0337 23.1998 49.0761Z" fill="#403637"/>
<path d="M39.6839 19.7355C37.1432 19.7355 34.715 19.7375 32.2884 19.7335C31.696 19.7335 31.832 19.1866 31.8353 18.7849C31.8622 15.5921 31.9075 12.3973 31.931 9.20451C31.9461 7.1964 31.9343 5.18829 31.9343 3.18017C32.03 3.10954 32.124 3.0389 32.2196 2.96826C32.3438 3.21448 32.4428 3.48896 32.5972 3.70491C34.0538 5.74329 35.5406 7.75343 36.9704 9.81805C37.3496 10.365 37.6634 11.0391 37.8413 11.7172C38.4588 14.0866 39.0059 16.4842 39.5731 18.8737C39.6235 19.0957 39.6318 19.3319 39.6839 19.7355Z" fill="#403637"/>
<path d="M25.9016 46.2991C25.4351 47.1205 24.9686 47.9419 24.5021 48.7654C24.4769 48.7533 24.4517 48.7432 24.4282 48.7311C25.0021 46.4283 25.5677 44.1215 26.1516 41.8207C27.7475 35.5239 29.3619 29.2332 30.9309 22.9263C31.1088 22.2098 31.3655 21.9414 31.9613 21.9535C33.4061 21.9818 34.851 21.9616 36.4016 21.9616C35.6347 23.7094 34.8879 25.4248 34.1311 27.1343C31.624 32.7994 29.1102 38.4604 26.6081 44.1275C26.4671 44.4484 26.4 44.8157 26.2993 45.1609C26.1667 45.5423 26.0342 45.9197 25.9016 46.2991Z" fill="#403637"/>
<path d="M0 20.6819C3.63648 15.0875 7.12192 9.7251 10.6074 4.36475C10.656 4.38493 10.7047 4.40511 10.7534 4.42529C10.3573 7.10345 9.95793 9.77959 9.56358 12.4577C9.23635 14.6737 8.93093 16.8938 8.56846 19.0997C8.51308 19.4387 8.22276 19.9614 8.01132 19.9836C5.42535 20.2541 2.83434 20.4478 0 20.6819Z" fill="#403637"/>
<path d="M37.1599 4.09424C40.934 9.48284 44.5822 14.6918 48.3596 20.0865C47.4619 20.0865 46.7772 20.0966 46.0942 20.0845C44.3355 20.0562 42.5785 20.0118 40.8199 19.9916C40.4138 19.9876 40.1604 19.8847 40.053 19.3236C39.1199 14.492 38.1601 9.6665 37.2119 4.83896C37.18 4.6775 37.1868 4.50999 37.1599 4.09424Z" fill="#403637"/>
<path d="M19.5132 19.1178C20.7885 16.9583 21.9918 14.9219 23.1933 12.8856C23.1547 12.8311 23.1161 12.7766 23.0792 12.7221C22.1831 13.2085 21.2869 13.6928 20.3908 14.1792C20.3707 14.1369 20.3489 14.0945 20.3287 14.0521C21.5538 12.8593 22.7788 11.6686 23.9115 10.5667C26.3414 13.4103 28.7311 16.2055 31.2214 19.1198C27.2778 19.1178 23.4718 19.1178 19.5132 19.1178Z" fill="#403637"/>
<path d="M24.0022 45.0052C22.1714 38.7952 20.3406 32.5852 18.5098 26.3752C18.5584 26.347 18.6088 26.3207 18.6574 26.2925C20.396 29.7597 22.1345 33.227 23.9754 36.8981C25.9639 32.3188 27.8787 27.909 29.7934 23.4993C29.837 23.5174 29.8823 23.5376 29.926 23.5558C28.0112 30.6942 26.0982 37.8326 24.1835 44.9709C24.1247 44.983 24.0643 44.9952 24.0022 45.0052Z" fill="#403637"/>
<path d="M25.9016 46.299C26.0342 45.9196 26.1668 45.5422 26.2993 45.1628C27.1619 43.5583 28.0446 41.97 28.8819 40.3494C31.9479 34.4179 35.0054 28.4803 38.0511 22.5327C38.3415 21.9676 38.6452 21.6548 39.2409 21.6931C40.2394 21.7557 41.2429 21.7113 42.2901 21.7113C42.2095 21.8667 42.129 22.0644 42.0182 22.232C36.7909 30.105 31.5619 37.974 26.3279 45.8409C26.2087 46.0165 26.0443 46.1477 25.9016 46.299Z" fill="#403637"/>
<path d="M29.2461 15.4972C27.531 13.3034 25.8177 11.1116 24.0556 8.85729C22.396 10.7463 20.8655 12.486 19.3368 14.2277C19.2764 14.1773 19.2176 14.1268 19.1572 14.0743C20.8488 9.7231 22.5403 5.36983 24.309 0.820801C26.0962 5.74724 27.8113 10.4698 29.5246 15.1924C29.4323 15.2933 29.34 15.3943 29.2461 15.4972Z" fill="#403637"/>
<path d="M14.3546 16.3808C13.143 15.3737 12.0539 14.4675 10.9262 13.529C10.5855 14.0033 10.2818 14.4272 9.96128 14.8712C9.69949 13.6461 10.2012 10.6309 10.797 9.74492C12.4667 7.26858 14.1364 4.79426 15.8078 2.32196C15.9773 2.0717 16.1653 1.83759 16.4405 1.46826C16.4405 3.19988 16.4405 4.75592 16.4405 6.31397C16.4052 6.32406 16.3683 6.33617 16.3331 6.34626C16.2089 5.41183 16.0847 4.4774 15.9605 3.54499C15.9035 3.54096 15.8464 3.53692 15.7877 3.53288C15.3161 7.75699 14.8463 11.9811 14.3546 16.3808Z" fill="#403637"/>
<path d="M23.2468 47.4816C21.4445 42.4966 19.763 37.441 17.7912 32.5529C16.8078 30.1129 16.7642 27.7617 17.0965 25.2531C17.1082 25.1603 17.1569 25.0735 17.2509 24.801C19.325 32.452 21.3572 39.9476 23.3877 47.4453C23.3407 47.4574 23.2937 47.4695 23.2468 47.4816Z" fill="#403637"/>
<path d="M4.67163 22.357C5.556 22.357 6.28262 22.3106 7.00085 22.3812C7.25928 22.4075 7.59491 22.6436 7.73083 22.906C9.74457 26.8152 11.7315 30.7447 13.626 34.767C10.6642 30.6639 7.70398 26.5589 4.67163 22.357Z" fill="#403637"/>
</svg>

<svg width="49" height="50" viewBox="0 0 49 50" xmlns="http://www.w3.org/2000/svg" fill="none"><path d="M17.58 22.583l2.502 3.754-.082.113-3.061-2.987c-.349 4.291-.681 8.353-1.012 12.414l-.144.012-.968-11.98-1.853 1.584-.136-.125 1.616-2.773-13.202-1.247-.002-.19 12.65-1.211-2.182-3.338.081-.131 3.021 2.466.967-11.29.144-.006c.351 3.804.7 7.607 1.069 11.617l3.794-3.681.069.091-2.791 4.357c9.612.23 19.016.454 28.421.68v.085c-9.56.591-19.117 1.183-28.901 1.786zM47.751 21.758c-6.013 7.136-11.921 14.154-17.83 21.169l.151.19 14.272-16.378c.592 1.278 1.155 2.484 1.776 3.82-7.092 6.216-14.165 12.418-21.24 18.62l-.102-.125c1.29-1.78 2.576-3.566 3.871-5.342 5.085-6.971 10.181-13.932 15.249-20.919.5-.688 1.03-1.072 1.786-1.041.629.026 1.26.006 2.067.006zM23.2 49.076c-7.04-6.109-14.078-12.216-21.169-18.37l1.733-3.588c3.546 4.002 7.021 7.926 10.085 11.385-4.2-5.191-8.793-10.864-13.445-16.612.883.05 1.739.069 2.588.166.215.024.451.254.607.464 6.523 8.721 13.037 17.452 19.55 26.18l.138.25-.087.125zM39.684 19.735c-2.541 0-4.969.002-7.395-.002-.592 0-.456-.547-.453-.949.027-3.193.072-6.388.096-9.58.015-2.008.003-4.016.003-6.024l.285-.212c.124.246.223.521.378.737 1.457 2.038 2.943 4.049 4.373 6.113.379.547.693 1.221.871 1.899.617 2.369 1.165 4.767 1.732 7.156.05.222.059.458.111.862zM25.902 46.299l-1.399 2.466-.074-.034c.574-2.303 1.139-4.61 1.723-6.91 1.596-6.297 3.21-12.588 4.779-18.894.178-.716.435-.985 1.03-.973 1.445.028 2.89.008 4.44.008-.767 1.748-1.514 3.463-2.27 5.173-2.507 5.665-5.021 11.326-7.523 16.993-.141.321-.208.688-.309 1.033l-.398 1.138zM0 20.682c3.636-5.594 7.122-10.957 10.607-16.317l.146.061c-.396 2.678-.795 5.354-1.19 8.032-.327 2.216-.633 4.436-.995 6.642-.055.339-.346.862-.557.884-2.586.271-5.177.464-8.011.698zM37.16 4.094c3.774 5.389 7.422 10.598 11.2 15.992-.898 0-1.582.01-2.265-.002-1.759-.028-3.516-.073-5.274-.093-.406-.004-.659-.107-.767-.668-.933-4.832-1.893-9.657-2.841-14.485-.032-.161-.025-.329-.052-.745zM19.513 19.118c1.275-2.159 2.479-4.196 3.68-6.232l-.114-.164-2.688 1.457-.062-.127 3.583-3.485 7.31 8.553c-3.944-.002-7.75-.002-11.708-.002zM24.002 45.005c-1.831-6.21-3.662-12.42-5.492-18.63l.148-.083c1.739 3.467 3.477 6.934 5.318 10.606l5.818-13.399.133.056c-1.915 7.138-3.828 14.277-5.742 21.415l-.181.034zM25.902 46.299l.398-1.136c.863-1.604 1.745-3.193 2.583-4.813 3.066-5.931 6.123-11.869 9.169-17.817.29-.565.594-.878 1.19-.84.998.063 2.002.018 3.049.018-.081.155-.161.353-.272.521-5.227 7.873-10.456 15.742-15.69 23.609-.119.176-.284.307-.426.458zM29.246 15.497l-5.191-6.64-4.719 5.37-.18-.153 5.152-13.253c1.787 4.926 3.502 9.649 5.216 14.372l-.279.305zM14.355 16.381c-1.212-1.007-2.301-1.913-3.428-2.852l-.965 1.342c-.262-1.225.24-4.24.836-5.126 1.67-2.476 3.339-4.951 5.011-7.423.169-.25.357-.484.633-.854v4.846l-.107.032-.373-2.801-.173-.012-1.433 12.848zM23.247 47.482c-1.802-4.985-3.484-10.041-5.456-14.929-.983-2.44-1.027-4.791-.695-7.3l.154-.452c2.074 7.651 4.106 15.147 6.137 22.644l-.141.036zM4.672 22.357c.884 0 1.611-.046 2.329.024.258.026.594.262.73.525 2.014 3.909 4.001 7.839 5.895 11.861-2.962-4.103-5.922-8.208-8.954-12.41z" fill="#403637"/></svg>
